svg/fluentui-system-icons/ic_fluent_briefcase_28_filled.svg

<svg width="28" height="28" viewBox="0 0 28 28" fill="none" xmlns="http://www.w3.org/2000/svg">
<path d="M10.5 4.75V7H17.5V4.75C17.5 4.33579 17.1642 4 16.75 4H11.25C10.8358 4 10.5 4.33579 10.5 4.75ZM19 4.75V7H21.2505C23.3216 7 25.0005 8.67893 25.0005 10.75V11.7218C25.0002 11.7312 25 11.7406 25 11.75V12.75C25 13.9926 23.9926 15 22.75 15H16.5C16.5 14.1716 15.8284 13.5 15 13.5H13C12.1716 13.5 11.5 14.1716 11.5 15H5.25C4.05224 15 3.07308 14.0641 3.00391 12.8837V10.75C3.00391 8.67893 4.68284 7 6.75391 7H9V4.75C9 3.50736 10.0074 2.5 11.25 2.5H16.75C17.9926 2.5 19 3.50736 19 4.75ZM3.00391 15.7532V20.2501C3.00391 22.3211 4.68284 24.0001 6.75391 24.0001H21.2505C23.3216 24.0001 25.0005 22.3211 25.0005 20.2501V15.7499C24.3737 16.2209 23.5944 16.5 22.75 16.5H16.5V17C16.5 17.8284 15.8284 18.5 15 18.5H13C12.1716 18.5 11.5 17.8284 11.5 17V16.5H5.25C4.40755 16.5 3.62998 16.2222 3.00391 15.7532Z" fill="#212121"/>
</svg>

<svg xmlns="http://www.w3.org/2000/svg" width="28" height="28"><path d="M10.5 4.75V7h7V4.75a.75.75 0 0 0-.75-.75h-5.5a.75.75 0 0 0-.75.75Zm8.5 0V7h2.25A3.75 3.75 0 0 1 25 10.75v2A2.25 2.25 0 0 1 22.75 15H16.5a1.5 1.5 0 0 0-1.5-1.5h-2a1.5 1.5 0 0 0-1.5 1.5H5.25a2.25 2.25 0 0 1-2.246-2.116V10.75A3.75 3.75 0 0 1 6.754 7H9V4.75a2.25 2.25 0 0 1 2.25-2.25h5.5A2.25 2.25 0 0 1 19 4.75ZM3.004 15.753v4.497A3.75 3.75 0 0 0 6.754 24H21.25A3.75 3.75 0 0 0 25 20.25v-4.5a3.733 3.733 0 0 1-2.25.75H16.5v.5a1.5 1.5 0 0 1-1.5 1.5h-2a1.5 1.5 0 0 1-1.5-1.5v-.5H5.25c-.842 0-1.62-.278-2.246-.747Z"/></svg>
